picto/tracks-11-fr-large-framed.svg

<svg class="color-immutable" width="30" height="30" viewBox="0 0 30 30" fill="none" xmlns="http://www.w3.org/2000/svg"><path d="M30 0H0V30H30V0Z" fill="#2D327D"/><path d="M25.5 3C26.325 3 27 3.675 27 4.5V25.5C27 26.325 26.325 27 25.5 27H4.5C3.675 27 3 26.325 3 25.5V4.5C3 3.675 3.675 3 4.5 3H25.5ZM25.5 2.625H4.5C3.46613 2.625 2.625 3.46613 2.625 4.5V25.5C2.625 26.5339 3.46613 27.375 4.5 27.375H25.5C26.5339 27.375 27.375 26.5339 27.375 25.5V4.5C27.375 3.46613 26.5339 2.625 25.5 2.625Z" fill="white"/><path d="M12.7695 10.4895V23.9791H10.0753V15.149H9.11569H8.15607H7.2242H6.90125V13.193C7.55937 13.1745 8.09607 13.1069 8.51135 12.9899C8.92655 12.8732 9.30627 12.6824 9.65082 12.4179C10.149 12.0365 10.4842 11.3937 10.6566 10.4895H12.7695Z" fill="white"/><path d="M21.5986 10.4895V23.9791H18.9044V15.149H17.9448H16.9852H16.0533H15.7303V13.193C16.3885 13.1745 16.9252 13.1069 17.3404 12.9899C17.7556 12.8732 18.1354 12.6824 18.4799 12.4179C18.9781 12.0365 19.3133 11.3937 19.4857 10.4895H21.5986Z" fill="white"/><path d="M8.03591 6L7.28839 8.24865H6.73009L5.99329 6H6.50704L7.01306 7.6842L7.52681 6H8.03591Z" fill="white"/><path d="M8.87413 6.5229C9.11818 6.5229 9.3176 6.6039 9.47248 6.7659C9.62525 6.92588 9.70168 7.13918 9.70168 7.40573C9.70168 7.68158 9.62015 7.90148 9.4571 8.06558C9.30433 8.21835 9.10543 8.29478 8.86033 8.29478C8.59888 8.29478 8.39068 8.20965 8.23588 8.03948C8.0882 7.87748 8.0144 7.66725 8.0144 7.40888C8.0144 7.15455 8.08618 6.94793 8.22973 6.789C8.38865 6.61163 8.60345 6.5229 8.87413 6.5229ZM8.8511 6.87053C8.7332 6.87053 8.63938 6.91823 8.56963 7.01355C8.4989 7.10993 8.4635 7.2417 8.4635 7.40888C8.4635 7.5822 8.49838 7.71495 8.56813 7.80728C8.6399 7.90058 8.73785 7.94723 8.8619 7.94723C8.97778 7.94723 9.06958 7.9047 9.13723 7.81958C9.2141 7.72523 9.25258 7.58835 9.25258 7.40888C9.25258 7.24073 9.21875 7.11 9.15103 7.0167C9.0803 6.91928 8.98033 6.87053 8.8511 6.87053Z" fill="white"/><path d="M10.4491 6V6.40147H10.0031V6H10.4491ZM10.4491 6.57217V8.24873H10.0031V6.57217H10.4491Z" fill="white"/><path d="M12.3209 7.72575C12.2973 7.8201 12.2547 7.90875 12.1932 7.99185C12.0456 8.19382 11.8333 8.29485 11.5565 8.29485C11.3063 8.29485 11.1058 8.21587 10.9551 8.058C10.8813 7.98112 10.8249 7.88827 10.7859 7.7796C10.7438 7.66372 10.7228 7.54275 10.7228 7.4166C10.7228 7.17255 10.7931 6.9675 10.9335 6.80137C11.0904 6.61575 11.2935 6.52297 11.5426 6.52297C11.7436 6.52297 11.9148 6.585 12.0564 6.70905C12.1579 6.79822 12.2317 6.90825 12.2778 7.03897C12.324 7.1697 12.3471 7.33402 12.3471 7.53195H11.1766C11.1807 7.614 11.1936 7.68217 11.2151 7.73655C11.2756 7.88317 11.3904 7.95652 11.5596 7.95652C11.6427 7.95652 11.7104 7.9383 11.7627 7.90192C11.8149 7.86555 11.858 7.80682 11.8919 7.72582H12.3209V7.72575ZM11.8918 7.23202C11.8836 7.15102 11.8652 7.08382 11.8365 7.0305C11.8077 6.97822 11.767 6.93667 11.7142 6.90592C11.6614 6.87517 11.6037 6.8598 11.5412 6.8598C11.4417 6.8598 11.3597 6.8931 11.2951 6.95977C11.2305 7.02645 11.1921 7.1172 11.1798 7.23202H11.8918Z" fill="white"/></svg>

<svg class="color-immutable" width="30" height="30" viewBox="0 0 30 30" fill="none" xmlns="http://www.w3.org/2000/svg"><g clip-path="url(#a)"><path d="M30 0H0v30h30V0Z" fill="#2D327D"/><path d="M25.5 3c.825 0 1.5.675 1.5 1.5v21c0 .825-.675 1.5-1.5 1.5h-21c-.825 0-1.5-.675-1.5-1.5v-21C3 3.675 3.675 3 4.5 3h21Zm0-.375h-21A1.877 1.877 0 0 0 2.625 4.5v21c0 1.034.841 1.875 1.875 1.875h21a1.877 1.877 0 0 0 1.875-1.875v-21A1.877 1.877 0 0 0 25.5 2.625Z" fill="#fff"/><path d="M12.77 10.49v13.49h-2.695v-8.831H6.901v-1.956c.658-.018 1.195-.086 1.61-.203a3.339 3.339 0 0 0 1.14-.572c.498-.381.833-1.024 1.006-1.928h2.113ZM21.599 10.49v13.49h-2.695v-8.831H15.73v-1.956c.659-.018 1.195-.086 1.61-.203a3.339 3.339 0 0 0 1.14-.572c.498-.381.833-1.024 1.006-1.928h2.113ZM8.036 6l-.748 2.249H6.73L5.993 6h.514l.506 1.684L7.527 6h.509ZM8.874 6.523c.244 0 .444.08.598.243.153.16.23.373.23.64 0 .276-.082.495-.245.66a.807.807 0 0 1-.597.229c-.261 0-.47-.085-.624-.256-.148-.162-.222-.372-.222-.63 0-.254.072-.461.216-.62.159-.177.373-.266.644-.266Zm-.023.348a.331.331 0 0 0-.281.143.656.656 0 0 0-.107.395c0 .173.035.306.105.398a.35.35 0 0 0 .294.14.333.333 0 0 0 .275-.127c.077-.095.116-.232.116-.411 0-.168-.034-.299-.102-.392a.349.349 0 0 0-.3-.146ZM10.45 6v.401h-.447V6h.446Zm0 .572V8.25h-.447V6.572h.446ZM12.32 7.726a.751.751 0 0 1-.127.266c-.147.202-.36.303-.636.303-.25 0-.451-.08-.602-.237a.773.773 0 0 1-.17-.278 1.055 1.055 0 0 1-.062-.363c0-.244.07-.45.21-.616a.76.76 0 0 1 .61-.278.753.753 0 0 1 .735.516c.046.13.07.295.07.493h-1.171a.65.65 0 0 0 .038.205c.06.146.175.22.345.22.083 0 .15-.019.203-.055a.391.391 0 0 0 .129-.176h.429Zm-.428-.494a.54.54 0 0 0-.056-.202.338.338 0 0 0-.295-.17c-.1 0-.181.033-.246.1a.446.446 0 0 0-.115.272h.712Z" fill="#fff"/></g><defs><clipPath id="a"><path fill="#fff" d="M0 0h30v30H0z"/></clipPath></defs></svg>
